X:1
T:Title
%%score { ( 1 3 ) | ( 2 4 ) }
L:1/8
M:3/4
K:A
V:1 treble nm="Grand Piano"
V:3 treble 
V:2 bass 
V:4 bass 
V:1
 z2 z2[Q:1/4=100] [CE][=C^D] | [DF]2 [CE][CE] [CA][B,G] | [DB]2 [CA]2 [Ec][EA] | %3
 [DF]2 [DF]2 [^DB][Dc] |[M:2/4] B2 E2 |[M:1/4] [CE][=C^D] |[M:3/4] [DF]2 [CE][CE] [CA][B,G] | %7
 [DB]2 [CA]2 [Ec][Ec] | [EB]2 [G,E]2 [A,^DF][B,DG] |[M:2/4] [G,E]4 |[M:4/4] z2 B2 [DE]4 | %11
 z2 [CA]2 [CE]4 | z2 [Fd]4 z2 | z2 [=Ec]6 |[M:3/4] z2 [^DB]2 [DF]2- |[M:1/4] [DF]2 | Bc | %17
[M:4/4] B2 [DE]4 z2 | [DG]4 z4 |[M:3/4] A6 |] %20
V:2
 z2 z2 [A,,A,][A,,A,] | [A,,A,]2 [A,,A,][A,,A,] [A,,E,][A,,E,] | [A,,E,]2 [A,,E,]2 [A,,A,][C,A,] | %3
 [D,A,]2 [D,A,]2 [B,,A,][B,,A,] |[M:2/4] [E,G,D]4 |[M:1/4] [A,,A,][A,,A,] | %6
[M:3/4] [A,,A,]2 [A,,A,][A,,A,] [A,,E,][A,,E,] | [A,,E,]2 [A,,E,]2 [A,,A,][A,,A,] | %8
 [B,,G,]2 B,,2 B,,B,, |[M:2/4] E,4 |[M:4/4] DED-[E,D] E,2 E,2 | DEA,,A,, A,,2 A,,2 | %12
 =GG[K:bass][D,A,]D, D,[D,A,] [D,A,]2 | [D,A,]2 [A,,A,]2 A,,2 A,,2 |[M:3/4] EE [B,,A,]B,, B,,2 | %15
[M:1/4] B,,2 | DE |[M:4/4] D-[E,D] E,2 E,2 DD | E,E,E,[E,^A,D] [E,B,D]2 [E,G,D]2 | %19
[M:3/4] [A,,A,]2 [A,,F,]2 [A,,E,]2 |] %20
V:3
 x6 | x6 | x6 | x6 |[M:2/4] x4 |[M:1/4] x2 |[M:3/4] x6 | x6 | x6 |[M:2/4] x4 | %10
[M:4/4] Bc z G, G,2 G,2 | BcA,A, A,2 A,2 | AA z A, A,[Fd] [FA]2 | [^EB]2 z2 A,2 A,2 | %14
[M:3/4] cc z A, A,2 |[M:1/4] A,2 | x2 |[M:4/4] z G, G,2 G,2 EF | B,B,B,=G ^G2 B2 | %19
[M:3/4] C2 D2 C2 |] %20
V:4
 x6 | x6 | x6 | x6 |[M:2/4] x4 |[M:1/4] x2 |[M:3/4] x6 | x6 | x6 |[M:2/4] x4 | %10
[M:4/4] z2 .[E,G,]2 z4 | x8 | x2[K:bass] x6 | x8 |[M:3/4] x6 |[M:1/4] x2 | x2 | %17
[M:4/4] .[E,G,]2 z2 z4 | x8 |[M:3/4] x6 |] %20

